icon-themes/breeze_svg/cmd/lc_arrowshapes.up-right-down-arrow.svg

<svg viewBox="0 0 24 24" xmlns="http://www.w3.org/2000/svg"><path d="m8 4-4 4h2v8h-2l4 4 4-4h-2v-2h6v2l4-4-4-4v2h-6v-2h2z" fill="#4d4d4d"/></svg>

<svg xmlns="http://www.w3.org/2000/svg" viewBox="0 0 24 24">
 <path 
     style="fill:#4d4d4d" 
     d="M 8 4 L 4 8 L 6 8 L 6 16 L 4 16 L 8 20 L 12 16 L 10 16 L 10 14 L 16 14 L 16 16 L 20 12 L 16 8 L 16 10 L 10 10 L 10 8 L 12 8 L 8 4 z "
     />
 </svg>
